svgs/sharp-light/clipboard-prescription.svg

<svg xmlns="http://www.w3.org/2000/svg" viewBox="0 0 384 512"><!--! Font Awesome Pro 6.6.0 by @fontawesome - https://fontawesome.com License - https://fontawesome.com/license (Commercial License) Copyright 2024 Fonticons, Inc. --><path d="M145.5 68c5.3-20.7 24.1-36 46.5-36s41.2 15.3 46.5 36l3.1 12L254 80l34 0 0 48-96 0-96 0 0-48 34 0 12.4 0 3.1-12zM192 0c-32.8 0-61 19.8-73.3 48L80 48 64 48l0 16 0 16L32 80 0 80l0 32L0 480l0 32 32 0 320 0 32 0 0-32 0-368 0-32-32 0-32 0 0-16 0-16-16 0-38.7 0C253 19.8 224.8 0 192 0zM320 144l0-32 32 0 0 368L32 480l0-368 32 0 0 32 0 16 16 0 112 0 112 0 16 0 0-16zM208 80a16 16 0 1 0 -32 0 16 16 0 1 0 32 0zM112 208l-16 0 0 16 0 80 0 80 32 0 0-64 41.4 0 48 48-36.7 36.7L169.4 416 192 438.6l11.3-11.3L240 390.6l36.7 36.7L288 438.6 310.6 416l-11.3-11.3L262.6 368l36.7-36.7L310.6 320 288 297.4l-11.3 11.3L240 345.4l-31.2-31.2C227.3 305.1 240 286 240 264c0-30.9-25.1-56-56-56l-72 0zm72 80l-56 0 0-48 56 0c13.3 0 24 10.7 24 24s-10.7 24-24 24z"/></svg>

<svg xmlns="http://www.w3.org/2000/svg" viewBox="0 0 384 512"><!--! Font Awesome Pro 6.4.0 by @fontawesome - https://fontawesome.com License - https://fontawesome.com/license (Commercial License) Copyright 2023 Fonticons, Inc. --><path d="M145.5 68c5.3-20.7 24.1-36 46.5-36s41.2 15.3 46.5 36l3.1 12H254h34v48H192 96V80h34 12.4l3.1-12zM192 0c-32.8 0-61 19.8-73.3 48H80 64V64 80H32 0v32V480v32H32 352h32V480 112 80H352 320V64 48H304 265.3C253 19.8 224.8 0 192 0zM320 144V112h32V480H32V112H64v32 16H80 192 304h16V144zM208 80a16 16 0 1 0 -32 0 16 16 0 1 0 32 0zM112 208H96v16 80 64 16h32V368 320h41.4l48 48-36.7 36.7L169.4 416 192 438.6l11.3-11.3L240 390.6l36.7 36.7L288 438.6 310.6 416l-11.3-11.3L262.6 368l36.7-36.7L310.6 320 288 297.4l-11.3 11.3L240 345.4l-31.2-31.2C227.3 305.1 240 286 240 264c0-30.9-25.1-56-56-56H112zm72 80H128V240h56c13.3 0 24 10.7 24 24s-10.7 24-24 24z"/></svg>
